<?xml version="1.0" encoding="UTF-8"?>
<map version="1.10" tiledversion="1.10.1" orientation="orthogonal" renderorder="right-down" width="40" height="23" tilewidth="16" tileheight="16" infinite="0" nextlayerid="5" nextobjectid="44">
 <tileset firstgid="1" source="pixel Adventure.tsx"/>
 <layer id="1" name="Background" width="40" height="23">
  <data encoding="csv">
112,112,112,112,112,112,112,112,112,112,112,112,112,112,112,112,112,112,112,112,112,112,112,112,112,112,112,112,112,112,112,112,112,112,112,112,112,112,112,112,
112,112,112,112,112,112,112,112,112,112,112,112,112,112,112,112,112,112,112,112,112,112,112,112,112,112,112,112,112,112,112,112,112,112,112,112,112,112,112,112,
112,112,112,112,112,112,112,112,112,112,112,112,112,112,112,112,112,112,112,112,112,112,112,112,112,112,112,112,112,112,112,112,112,112,112,112,112,112,112,112,
112,112,112,92,134,134,134,134,134,134,134,134,134,134,134,134,134,134,134,134,134,134,134,134,134,134,134,134,134,134,134,134,134,134,134,134,93,112,112,112,
112,112,112,113,0,0,0,0,0,0,0,0,0,0,0,0,0,0,0,0,0,0,0,0,0,0,0,0,0,0,0,0,0,0,0,0,111,112,112,112,
112,112,112,113,0,0,0,0,0,0,0,0,0,0,0,0,0,0,0,0,0,0,0,0,0,0,0,0,0,0,0,0,0,0,0,0,111,112,112,112,
112,112,112,113,40,41,42,0,0,0,0,0,0,0,0,0,0,0,0,0,0,0,0,0,0,0,0,0,0,0,0,0,0,0,0,0,111,112,112,112,
112,112,112,113,0,0,0,0,0,0,0,0,0,0,0,0,0,0,0,0,0,0,0,0,0,0,0,0,0,0,0,0,0,0,0,0,111,112,112,112,
112,112,112,113,0,0,0,0,0,0,0,0,0,0,0,0,0,0,0,0,0,0,0,0,0,0,0,0,0,0,0,0,0,0,0,0,111,112,112,112,
112,112,112,113,40,41,42,0,0,0,0,0,0,0,13,14,15,0,0,0,0,0,0,0,0,0,0,0,0,0,0,40,41,42,0,0,111,112,112,112,
112,112,112,113,0,0,0,0,0,0,0,0,0,0,0,0,0,0,0,0,0,0,0,0,0,0,0,0,0,0,0,0,0,0,0,0,111,112,112,112,
112,112,112,113,0,0,0,0,0,0,0,0,0,0,0,0,0,0,0,0,0,0,0,0,0,0,0,0,0,0,0,0,0,0,0,0,111,112,112,112,
112,112,112,113,40,41,42,0,0,0,0,0,0,0,0,0,0,0,0,0,0,0,0,13,14,15,0,0,0,0,0,0,0,0,0,0,111,112,112,112,
112,112,112,113,0,0,0,0,0,0,0,0,0,0,0,0,0,0,0,0,0,0,0,0,0,0,0,0,0,0,0,40,41,42,0,0,111,112,112,112,
112,112,112,113,0,0,0,0,0,0,0,0,0,0,0,0,0,0,0,0,0,0,0,0,0,0,0,0,0,0,0,0,0,0,0,0,111,112,112,112,
112,112,112,113,35,0,0,0,0,0,0,0,0,0,0,0,0,0,0,0,0,0,0,0,0,0,0,0,0,0,0,0,0,0,0,0,111,112,112,112,
112,112,112,113,7,8,8,8,8,8,8,8,9,0,0,0,0,0,0,0,0,0,0,0,0,0,0,0,7,8,8,8,8,9,0,0,111,112,112,112,
112,112,112,113,29,30,30,30,30,30,30,30,31,0,0,0,0,0,0,0,0,0,0,0,0,0,0,0,29,30,30,30,30,31,0,0,111,112,112,112,
112,112,112,113,51,52,52,52,52,52,52,52,53,0,0,0,0,0,0,0,0,0,0,0,0,0,0,0,51,52,52,52,52,53,0,0,111,112,112,112,
112,112,112,114,90,90,90,90,90,90,90,90,90,90,90,90,90,90,90,90,90,90,90,90,90,90,90,90,90,90,90,90,90,90,90,90,115,112,112,112,
112,112,112,112,112,112,112,112,112,112,112,112,112,112,112,112,112,112,112,112,112,112,112,112,112,112,112,112,112,112,112,112,112,112,112,112,112,112,112,112,
112,112,112,112,112,112,112,112,112,112,112,112,112,112,112,112,112,112,112,112,112,112,112,112,112,112,112,112,112,112,112,112,112,112,112,112,112,112,112,112,
112,112,112,112,112,112,112,112,112,112,112,112,112,112,112,112,112,112,112,112,112,112,112,112,112,112,112,112,112,112,112,112,112,112,112,112,112,112,112,112
</data>
 </layer>
 <objectgroup id="3" name="Spawnpoint" class="Player">
  <object id="2" name="player" type="Player" x="144" y="224" width="29.5519" height="28.5502"/>
  <object id="40" type="Saw" x="288" y="288" width="32" height="32">
   <properties>
    <property name="isVertical" type="bool" value="false"/>
    <property name="offNeg" type="float" value="5"/>
    <property name="offPos" type="float" value="8"/>
   </properties>
  </object>
  <object id="42" type="Saw" x="304" y="128" width="32" height="32">
   <properties>
    <property name="isVertical" type="bool" value="true"/>
    <property name="offNeg" type="float" value="4"/>
    <property name="offPos" type="float" value="5"/>
   </properties>
  </object>
 </objectgroup>
 <objectgroup id="4" name="Collisions">
  <object id="8" x="48" y="48" width="16" height="272"/>
  <object id="9" x="64" y="304" width="528" height="16"/>
  <object id="10" x="576" y="48" width="16" height="256"/>
  <object id="11" x="64" y="48" width="512" height="16"/>
  <object id="27" x="64" y="240" width="16" height="16"/>
  <object id="28" x="64" y="256" width="144" height="48"/>
  <object id="29" x="448" y="256" width="96" height="48"/>
  <object id="30" x="368" y="192" width="48" height="16"/>
  <object id="31" x="224" y="144" width="48" height="16"/>
  <object id="32" type="Platform" x="496" y="208" width="48" height="16"/>
  <object id="34" type="Platform" x="496" y="144" width="48" height="16"/>
  <object id="36" type="Platform" x="64" y="96" width="48" height="16"/>
  <object id="37" type="Platform" x="64" y="144" width="48" height="16"/>
  <object id="38" type="Platform" x="64" y="192" width="48" height="16"/>
 </objectgroup>
</map>
